src/assets/img/globalping/globalping-ux-icon.svg

<svg width="58" height="60" viewBox="0 0 58 60" fill="none" xmlns="http://www.w3.org/2000/svg">
<path d="M26.4 2.58565C27.8851 1.72822 29.7149 1.72822 31.2 2.58565L51.3415 14.2144C52.8267 15.0718 53.7415 16.6564 53.7415 18.3713V41.6287C53.7415 43.3436 52.8267 44.9282 51.3415 45.7857L31.2 57.4144C29.7149 58.2718 27.8851 58.2718 26.4 57.4144L6.25847 45.7857C4.77335 44.9282 3.85847 43.3436 3.85847 41.6287V18.3713C3.85847 16.6564 4.77334 15.0718 6.25847 14.2144L26.4 2.58565Z" fill="#17D4A7" stroke="#69E7C8" stroke-width="2.4" stroke-linecap="round" stroke-linejoin="round"/>
<path d="M26.3999 9.78567C27.8851 8.92823 29.7148 8.92823 31.2 9.78567L45.1061 17.8144C46.5912 18.6718 47.5061 20.2564 47.5061 21.9713V38.0287C47.5061 39.7436 46.5912 41.3282 45.1061 42.1857L31.2 50.2144C29.7148 51.0718 27.8851 51.0718 26.4 50.2144L12.4938 42.1857C11.0087 41.3282 10.0938 39.7436 10.0938 38.0287V21.9713C10.0938 20.2564 11.0087 18.6718 12.4938 17.8144L26.3999 9.78567Z" fill="url(#paint0_radial_8791_3703)" stroke="#69E7C8" stroke-width="2.4" stroke-linecap="round" stroke-linejoin="round"/>
<g clip-path="url(#clip0_8791_3703)">
<path d="M42.48 14.8801H16.08C14.0918 14.8801 12.48 16.4918 12.48 18.4801V41.5201C12.48 43.5083 14.0918 45.1201 16.08 45.1201H42.48C44.4682 45.1201 46.08 43.5083 46.08 41.5201V18.4801C46.08 16.4918 44.4682 14.8801 42.48 14.8801Z" fill="white" stroke="#17233A" stroke-width="2.4" stroke-linecap="round" stroke-linejoin="round"/>
</g>
<path d="M12.6 20.4H45.6" stroke="#17233A" stroke-width="2.4" stroke-linecap="round" stroke-linejoin="round"/>
<path d="M23.2682 38.4C22.4079 38.4 21.6477 38.2844 20.9877 38.0531C20.3395 37.8219 19.7914 37.4811 19.3436 37.0307C18.8957 36.5682 18.5598 35.9961 18.3359 35.3145C18.112 34.6329 18 33.8418 18 32.9411V26.3867C18 25.9851 18.0943 25.6869 18.2829 25.4921C18.4832 25.2974 18.7661 25.2 19.1314 25.2C19.4968 25.2 19.7738 25.2974 19.9623 25.4921C20.1627 25.6869 20.2629 25.9851 20.2629 26.3867V32.9228C20.2629 34.0791 20.5163 34.9494 21.023 35.5336C21.5416 36.1057 22.29 36.3917 23.2682 36.3917C24.2465 36.3917 24.989 36.1057 25.4957 35.5336C26.0025 34.9494 26.2559 34.0791 26.2559 32.9228V26.3867C26.2559 25.9851 26.3502 25.6869 26.5388 25.4921C26.7391 25.2974 27.022 25.2 27.3874 25.2C27.7409 25.2 28.012 25.2974 28.2006 25.4921C28.4009 25.6869 28.5011 25.9851 28.5011 26.3867V32.9411C28.5011 34.1339 28.3008 35.138 27.9 35.9535C27.5111 36.769 26.9277 37.3837 26.1499 37.7975C25.372 38.1992 24.4115 38.4 23.2682 38.4Z" fill="#17233A"/>
<path d="M31.4264 38.3635C31.1317 38.3635 30.8901 38.2844 30.7016 38.1262C30.513 37.9558 30.401 37.7488 30.3657 37.5054C30.3421 37.2498 30.4246 36.9942 30.6132 36.7386L34.6616 31.1701V32.1743L30.8076 26.8432C30.6191 26.5754 30.5366 26.3198 30.5601 26.0764C30.5837 25.8208 30.6898 25.6138 30.8783 25.4556C31.0669 25.2852 31.3026 25.2 31.5855 25.2C31.8212 25.2 32.0275 25.2609 32.2042 25.3826C32.3928 25.4921 32.5814 25.6808 32.77 25.9486L35.9521 30.4764H35.2273L38.3918 25.9486C38.5803 25.6808 38.763 25.4921 38.9398 25.3826C39.1284 25.2609 39.3464 25.2 39.5939 25.2C39.8886 25.2 40.1302 25.2791 40.3187 25.4374C40.5073 25.5956 40.6134 25.8025 40.637 26.0581C40.6605 26.3015 40.5721 26.5632 40.3718 26.8432L36.5178 32.1743V31.1701L40.5486 36.7386C40.7371 36.9942 40.8196 37.2498 40.7961 37.5054C40.7725 37.7488 40.6664 37.9558 40.4779 38.1262C40.2893 38.2844 40.0418 38.3635 39.7354 38.3635C39.5114 38.3635 39.3052 38.3026 39.1166 38.1809C38.9398 38.0592 38.7512 37.8645 38.5509 37.5967L35.1919 32.8498H35.9698L32.6285 37.5967C32.44 37.8645 32.2514 38.0592 32.0628 38.1809C31.8742 38.3026 31.6621 38.3635 31.4264 38.3635Z" fill="#17233A"/>
<defs>
<radialGradient id="paint0_radial_8791_3703" cx="0" cy="0" r="1" gradientUnits="userSpaceOnUse" gradientTransform="translate(15.5999 14.4) rotate(59.3814) scale(34.1631)">
<stop stop-color="white" stop-opacity="0.89"/>
<stop offset="1" stop-color="white" stop-opacity="0"/>
</radialGradient>
<clipPath id="clip0_8791_3703">
<rect width="36.96" height="33.6" fill="white" transform="translate(10.8 13.2)"/>
</clipPath>
</defs>
</svg>

<svg xmlns="http://www.w3.org/2000/svg" width="58" height="60" fill="none">
  <path fill="#17D4A7" stroke="#69E7C8" stroke-linecap="round" stroke-linejoin="round" stroke-width="2.4" d="M26.4 2.586a4.8 4.8 0 0 1 4.8 0l20.142 11.628a4.8 4.8 0 0 1 2.4 4.157V41.63a4.8 4.8 0 0 1-2.4 4.157L31.2 57.414a4.8 4.8 0 0 1-4.8 0L6.258 45.786a4.8 4.8 0 0 1-2.4-4.157V18.37a4.8 4.8 0 0 1 2.4-4.157z"/>
  <path fill="url(#a)" stroke="#69E7C8" stroke-linecap="round" stroke-linejoin="round" stroke-width="2.4" d="M26.4 9.786a4.8 4.8 0 0 1 4.8 0l13.906 8.028a4.8 4.8 0 0 1 2.4 4.157V38.03a4.8 4.8 0 0 1-2.4 4.157L31.2 50.214a4.8 4.8 0 0 1-4.8 0l-13.906-8.028a4.8 4.8 0 0 1-2.4-4.157V21.97a4.8 4.8 0 0 1 2.4-4.157z"/>
  <g clip-path="url(#b)">
    <path fill="#fff" stroke="#17233A" stroke-linecap="round" stroke-linejoin="round" stroke-width="2.4" d="M42.48 14.88h-26.4a3.6 3.6 0 0 0-3.6 3.6v23.04a3.6 3.6 0 0 0 3.6 3.6h26.4a3.6 3.6 0 0 0 3.6-3.6V18.48a3.6 3.6 0 0 0-3.6-3.6"/>
  </g>
  <path stroke="#17233A" stroke-linecap="round" stroke-linejoin="round" stroke-width="2.4" d="M12.6 20.4h33"/>
  <path fill="#17233A" d="M23.268 38.4q-1.29 0-2.28-.347a4.3 4.3 0 0 1-1.644-1.022q-.672-.694-1.008-1.716T18 32.94v-6.554q0-.603.283-.895.3-.292.848-.292.549 0 .831.292.3.292.3.895v6.536q0 1.734.761 2.61.778.86 2.245.859 1.468 0 2.228-.858.76-.877.76-2.611v-6.536q0-.603.283-.895.3-.292.848-.292.53 0 .814.292.3.292.3.895v6.554q0 1.79-.601 3.012a3.96 3.96 0 0 1-1.75 1.844q-1.166.603-2.882.603m8.158-.035q-.442 0-.724-.238-.283-.255-.336-.62-.036-.384.247-.767l4.049-5.569v1.004l-3.854-5.33q-.283-.403-.248-.768a.88.88 0 0 1 .318-.62q.284-.256.707-.256.354 0 .62.183.282.165.565.566l3.182 4.527h-.725l3.165-4.527q.282-.402.548-.566a1.2 1.2 0 0 1 .654-.183q.442 0 .725.237a.88.88 0 0 1 .318.621q.035.366-.265.785l-3.854 5.331V31.17l4.03 5.569q.285.382.248.766a.94.94 0 0 1-.318.621q-.283.237-.743.238-.336 0-.618-.183-.266-.183-.566-.584l-3.36-4.747h.779l-3.341 4.747q-.284.4-.566.584t-.637.183"/>
  <defs>
    <radialGradient id="a" cx="0" cy="0" r="1" gradientTransform="rotate(59.381 -4.828 20.88)scale(34.1631)" gradientUnits="userSpaceOnUse">
      <stop stop-color="#fff" stop-opacity=".89"/>
      <stop offset="1" stop-color="#fff" stop-opacity="0"/>
    </radialGradient>
    <clipPath id="b">
      <path fill="#fff" d="M10.8 13.2h36.96v33.6H10.8z"/>
    </clipPath>
  </defs>
</svg>
